X:038
T: Captain O Cain
N: O'Farrell's Pocket Companion v.1 (Sky ed. p.34)
N: "Irish"
M: 6/8
L: 1/8
Q: 140 % "slow"
K: Am
A/G/|EAA/B/ c2 B/A/|{c}B d/c/B/A/ GAB|cec e/d/c/B/A/G/|EAA A2:|
B|cee e>fg|Bdd d2 g/f/|eag abc'|eag a2b|
c'ba gee|dBg GAB|ce>c e/d/c/B/A/G/|EAA {B}A2:|
